packages/tokens/icons/roadmap/size24Px.svg

<svg viewBox="0 0 24 24" fill="none" xmlns="http://www.w3.org/2000/svg" width="1em" height="1em"><path d="M3.99988 19.9999L10.5 13.5" stroke="currentColor" stroke-linecap="round" stroke-linejoin="round" stroke-dasharray="1.5 1.5"/><path d="M12 16L11.9999 12.0001L8 12" stroke="currentColor" stroke-linecap="round" stroke-linejoin="round"/><path d="M17.8332 2.77882L17.4347 2.95939L17.8332 2.77882C17.5087 2.06253 16.4913 2.06253 16.1668 2.77882L15.2973 4.69773C15.2919 4.7095 15.2812 4.71794 15.2685 4.72037L12.8207 5.19013C12.0928 5.32981 11.8245 6.23179 12.3577 6.7466L14.016 8.34773C14.0254 8.3568 14.0297 8.36992 14.0276 8.38281L13.6033 10.9581C13.4791 11.7119 14.2789 12.2768 14.9478 11.9078L16.9808 10.7861C16.9927 10.7795 17.0073 10.7795 17.0192 10.7861L19.0522 11.9078C19.7211 12.2768 20.5209 11.7119 20.3967 10.9581L19.9724 8.38281C19.9703 8.36992 19.9746 8.3568 19.984 8.34773L21.6423 6.7466C22.1755 6.23179 21.9072 5.32981 21.1793 5.19013L18.7315 4.72037C18.7188 4.71794 18.7081 4.7095 18.7027 4.69773L17.8332 2.77882Z" stroke="currentColor" stroke-width="0.875"/></svg>

<svg xmlns="http://www.w3.org/2000/svg" fill="none" viewBox="0 0 24 24" width="1em" height="1em"><path stroke="currentColor" stroke-dasharray="1.5 1.5" stroke-linecap="round" stroke-linejoin="round" d="m4 20 6.5-6.5"/><path stroke="currentColor" stroke-linecap="round" stroke-linejoin="round" d="M12 16v-4H8"/><path stroke="currentColor" stroke-width=".875" d="m17.833 2.779-.398.18.398-.18a.915.915 0 0 0-1.666 0l-.87 1.919a.04.04 0 0 1-.029.022l-2.447.47a.915.915 0 0 0-.463 1.557l1.658 1.6a.04.04 0 0 1 .012.036l-.425 2.575a.915.915 0 0 0 1.345.95l2.033-1.122a.04.04 0 0 1 .038 0l2.033 1.122a.915.915 0 0 0 1.345-.95l-.425-2.575a.04.04 0 0 1 .012-.035l1.658-1.601a.915.915 0 0 0-.463-1.557l-2.447-.47a.04.04 0 0 1-.03-.022l-.869-1.92Z"/></svg>
